X:1
T:Title
%%score ( 1 2 ) { 3 | 4 }
L:1/8
Q:1/4=105
M:6/8
K:D
V:1 treble nm="Grand Piano, Soprano"
V:2 treble 
V:3 bass nm="Choir Pad, Over and Over, B. Booth"
V:4 bass 
V:1
 [FA]3 [GB]2 [FA] | [FA]3 [DF]2 [DF] | [DF]2 D F2 [DF] | [CE]6 | [Gc]3 [Gc]2 [Ge] | %5
w: By~Ballington~Booth,~arr.~William~J.~Kirkpatrick * *|||||
 [Ge]2 [Ec] [CA]2 [CA] | AB[CA] [CE]2 [C=F] | [DF]3- [DF]3/2 z/ [FA] | [FA]2 [FA] [FA][GB][Gc] | %9
w: ||||
 [Fd]2 [Fd] [FA]2 [FA] | [FA]2 [FA] [FA][GB][Gc] | [Fd]2 [Fd] [FA]2 [FA] | [FA][DF]D [CE]2 D | D6 | %14
w: |||||
[M:3/4][Q:1/4=170] [DF]6 | [FA]4 [Fd]2 | [Ge]6 | [GB]6 | [Gc]4 [GB]2 | [EA]4 [CG]2 | [DF]6- | %21
w: |||||||
 [DF]4 z2 | [DF]4 [FA]2 | [Fd]4 [Fd]2 | [Ge]6 | [GB]6 | [Gc]4 A2 | [Af]4 [Ge]2 | [Fd]6- | [Fd]6- | %30
w: |||||||||
 [Fd]2 z2 z2 |] %31
w: |
V:2
 x6 | x6 | x6 | x6 | x6 | x6 | .C3 z3 | x6 | x6 | x6 | x6 | x6 | x6 | x6 |[M:3/4] x6 | x6 | x6 | %17
 x6 | x6 | x6 | x6 | x6 | x6 | x6 | x6 | x6 | x6 | x6 | x6 | x6 | x6 |] %31
V:3
 D,F,A, D,F,A, | D,F,A, D,F,A, | D,F,A, D,F,A, | A,,C,E, A,E,C, | B,,E,A, A,,E,A, | %5
 A,,E,A, A,,E,A, | A,,E,A, A,,E,A, | D,F,A, B,A,F, | D,F,A, D,G,A, | D,F,A, D,F,A, | %10
 D,F,A, D,G,A, | D,F,A, DA,F, | .A,3 .G,3 | A,6 |[M:3/4] A,2 A,2 A,2 | D2 D2 z2 | B,2 B,2 B,2 | %17
 E2 E2 z2 | E4 D2 | C4 A,2 | A,4 z2 | z6 | A,4 D2 | A,4 A,2 | B,4 B,2 | E4 E2 | E4 C2 | %27
 D2[K:bass] B,2 C2 | A,4 z2 | A,6- | A,2 z2 z2 |] %31
V:4
 z6 | z6 | z6 | z6 | z6 | z6 | z6 | z6 | z6 | z6 | z6 | z6 | .[D,F,]3 .A,,3 | [D,F,]6 | %14
[M:3/4] D,2 D,2 D,2 | D,2 D,2 z2 | G,2 G,2 G,2 | G,2 G,2 z2 | A,4 A,2 | A,,4 A,,2 | D,2 F,2 A,2 | %21
 B,2 A,2 F,2 | D,4 D,2 | D,4 D,2 | G,4 G,2 | G,4 G,2 | A,4 A,2 | A,4 A,2 | D,2 F,2 A,2 | D,6- | %30
 D,2 z2 z2 |] %31

